X: 30150
T: Old Copperplate, The
R: reel
M: 4/4
K: Adorian
|:"Am" A2 EA cA (3AAA|"Am" aged cA (3AAA|"G" G2 DG BGBd|"G" gedc BAGB|
"Am" A2 EA cA (3AAA|"Am" aged cA"G"GB|"Am" ABcd ef"G"ge|"Am" aged cA (3AAA:|
|:"Am" ageg a2 eg|aged cA (3AAA|"G" gfef g2 ef|gedc BG (3GGG|
"Am" ageg a2 eg|"Am" aged cA"G"GB|"Am" ABcd ef"G"ge|"Am" aged cA (3AAA:|

